X: 71
T: The Bob of Fettercairn
%R: reel
B: Urbani & Liston "A Selection of Scotch, English Irish, and Foreign Airs", Edinburgh 1800, p.30 #1
F: http://www.vwml.org/browse/browse-collections-dance-tune-books/browse-urbani1800
Z: 2014 John Chambers <jc:trillian.mit.edu>
M: C
L: 1/8
K: G
B/c/ |!segno!\
dBGB dBGB | dBde Tf2df |\
e^cAc ecAc | e>def g2fe |\
dBGB dBGB |
dBde Tfdfg |\
aefd e>dBa | A/A/A (Bd) e2g2 |]\
d>gBg dgBg | dgBg Tf2df |
ea^ca Aaca | Te>def g2fe |\
dgBg dgBg | dgBg Tf2de/f/ |\
gefd e>dBg | A/A/A Bd e2!segno!g2 |]

%%sep 1 1 500
%%sep 1 1 500
